modules/entypo/icons/right-circled.svg

<svg height="1000px" width="920px" xmlns="http://www.w3.org/2000/svg">
  <g>
    <path d="M0 500c0 -126.667 45 -235 135 -325c90 -90 198.333 -135 325 -135c126.667 0 235 45 325 135c90 90 135 198.333 135 325c0 126.667 -45 235 -135 325c-90 90 -198.333 135 -325 135c-126.667 0 -235 -45 -325 -135c-90 -90 -135 -198.333 -135 -325c0 0 0 0 0 0m820 0c0 -100 -35 -185 -105 -255c-70 -70 -155 -105 -255 -105c-98.667 0 -183.333 35 -254 105c-70.667 70 -106 155 -106 255c0 98.667 35.333 183.333 106 254c70.667 70.667 155.333 106 254 106c100 0 185 -35.333 255 -106c70 -70.667 105 -155.333 105 -254c0 0 0 0 0 0m-552 -90c0 0 204 0 204 0c0 0 0 -114 0 -114c0 0 190 204 190 204c0 0 -190 202 -190 202c0 0 0 -112 0 -112c0 0 -204 0 -204 0c0 0 0 -180 0 -180c0 0 0 0 0 0" />
  </g>
</svg>

<svg height="1000" width="920" viewBox="0 0 920 1000" xmlns="http://www.w3.org/2000/svg"><path d="M0 500c0-126.667 45-235 135-325S333.333 40 460 40s235 45 325 135 135 198.333 135 325-45 235-135 325-198.333 135-325 135-235-45-325-135S0 626.667 0 500m820 0c0-100-35-185-105-255S560 140 460 140c-98.667 0-183.333 35-254 105S100 400 100 500c0 98.667 35.333 183.333 106 254s155.333 106 254 106c100 0 185-35.333 255-106s105-155.333 105-254m-552-90h204V296l190 204-190 202V590H268V410"/></svg>
